public/assets/imgs/page/homepage2/icon-design.svg

<svg width="64" height="64" viewBox="0 0 64 64" fill="none" xmlns="http://www.w3.org/2000/svg">
<circle cx="32" cy="32" r="32" fill="#E4E7EC"/>
<g clip-path="url(#clip0_57_1330)">
<path d="M19 29.6753V23.1753C18.9993 22.8476 19.0729 22.5239 19.2153 22.2288C19.3577 21.9336 19.5652 21.6746 19.8223 21.4712C20.0773 21.2663 20.3759 21.1224 20.695 21.0505C21.0142 20.9786 21.3456 20.9806 21.6639 21.0563C22.6777 21.3277 23.6127 21.8354 24.3925 22.5377C25.1722 23.2401 25.7745 24.1172 26.15 25.0972C28.057 24.5717 30.0223 24.2871 32 24.25C33.9777 24.2871 35.943 24.5717 37.85 25.0972C38.2257 24.1168 38.8285 23.2394 39.6089 22.537C40.3892 21.8346 41.325 21.3272 42.3393 21.0563C42.6578 20.9828 42.9887 20.9821 43.3074 21.0542C43.6262 21.1264 43.9245 21.2695 44.1803 21.473C44.436 21.6765 44.6425 21.935 44.7845 22.2294C44.9264 22.5237 45.0001 22.8463 45 23.1732V29.6732C43.2133 29.7171 41.454 30.1224 39.8282 30.8648C37.7461 31.7518 35.9845 33.2536 34.7792 35.169C33.5738 37.0845 32.9821 39.3224 33.0833 41.5833C33.0833 41.8706 32.9692 42.1462 32.766 42.3493C32.5629 42.5525 32.2873 42.6666 32 42.6666C31.7127 42.6666 31.4371 42.5525 31.234 42.3493C31.0308 42.1462 30.9167 41.8706 30.9167 41.5833C31.0188 39.3214 30.4275 37.0823 29.2222 35.1656C28.0168 33.2489 26.2547 31.7461 24.1718 30.8583C22.5453 30.1194 20.7861 29.717 19 29.6753ZM40.6667 32.9166C40.4731 33.8235 39.9773 34.6378 39.2605 35.2261C38.5437 35.8143 37.6484 36.1418 36.7212 36.1547C35.7045 37.7788 35.1925 39.6681 35.25 41.5833C35.25 42.4453 34.9076 43.2719 34.2981 43.8814C33.6886 44.4909 32.862 44.8333 32 44.8333C31.1381 44.8333 30.3114 44.4909 29.7019 43.8814C29.0924 43.2719 28.75 42.4453 28.75 41.5833C28.8075 39.6681 28.2955 37.7788 27.2788 36.1547C26.3516 36.1418 25.4563 35.8143 24.7395 35.2261C24.0227 34.6378 23.5269 33.8235 23.3333 32.9166C21.9774 32.2668 20.5026 31.9018 19 31.8442C19.0341 34.9489 20.2869 37.916 22.4883 40.1056L27.5334 45.1507C28.7222 46.3258 30.3263 46.9848 31.9978 46.9848C33.6694 46.9848 35.2735 46.3258 36.4623 45.1507L41.5073 40.1056C43.7104 37.9167 44.9648 34.9496 45 31.8442C43.4974 31.9018 42.0226 32.2668 40.6667 32.9166Z" fill="#101828"/>
</g>
<defs>
<clipPath id="clip0_57_1330">
<rect width="26" height="26" fill="white" transform="translate(19 21)"/>
</clipPath>
</defs>
</svg>

<svg xmlns="http://www.w3.org/2000/svg" width="64" height="64" fill="none"><circle cx="32" cy="32" r="32" fill="#E4E7EC"/><g clip-path="url(#a)"><path fill="#101828" d="M19 29.675v-6.5a2.167 2.167 0 0 1 .822-1.704 2.147 2.147 0 0 1 1.842-.415 6.645 6.645 0 0 1 4.486 4.041A23.693 23.693 0 0 1 32 24.25c1.978.037 3.943.322 5.85.847a6.642 6.642 0 0 1 4.49-4.04A2.173 2.173 0 0 1 45 23.172v6.5c-1.787.044-3.546.45-5.172 1.192a11.11 11.11 0 0 0-6.745 10.718 1.083 1.083 0 1 1-2.166 0 11.114 11.114 0 0 0-6.745-10.725A13.252 13.252 0 0 0 19 29.675Zm21.667 3.242a4.093 4.093 0 0 1-3.946 3.238 9.683 9.683 0 0 0-1.471 5.428 3.25 3.25 0 1 1-6.5 0 9.683 9.683 0 0 0-1.471-5.428 4.093 4.093 0 0 1-3.946-3.238A11.002 11.002 0 0 0 19 31.844a11.836 11.836 0 0 0 3.488 8.262l5.045 5.045a6.35 6.35 0 0 0 8.93 0l5.044-5.045A11.835 11.835 0 0 0 45 31.844a11.002 11.002 0 0 0-4.333 1.073Z"/></g><defs><clipPath id="a"><path fill="#fff" d="M19 21h26v26H19z"/></clipPath></defs></svg>
